X: 41
T:Pop's Waltz
M:3/4
L:1/8
C:Dennis McGee
S:Blue Flame String Band, FF-275
N:Transcribed by Bruce Thomson
K:C
|z2a2g2|:"D"^f2 (3f/2g/2f/2 e fe|de ^fg af|"C"e2e2eg|ed cA ce|
"D"^f2 (3/2g/2f/2 e d2|"G"B2 (3B/2c/2B/ A G2|"C"c2 c2 cc|
&#91;1&#91;E2c2&#93;a2g2:|&#91;2E2&#91;Ec&#93;&#91;E2c2&#93;&#91;Ec&#93;|:"G"d2
BA BA|GA Bc dB|
"C"e2 e2 eg|ed cA ce|"G"d2 BA BA|Gg ^fa ge|"C"c2 c2
cc|E&#91;Ec&#93;&#91;Ec&#93;&#91;Ec&#93;&#91;Ec&#93;&#91;Ec&#93;:
